packages/icons/src/components/Logo/assets/light/alma-linux.svg

<svg width="20" height="20" viewBox="0 0 20 20" fill="none" xmlns="http://www.w3.org/2000/svg">
<path d="M18.3573 11.512C19.2061 11.4467 19.8917 12.0017 19.957 12.8505C20.0223 13.7319 19.402 14.4501 18.5532 14.5154C17.737 14.5807 17.0188 13.9605 16.9535 13.1443C16.8882 12.2628 17.4759 11.6099 18.3573 11.512Z" fill="#86DA2F"/>
<path d="M8.0411 18.4656C8.0411 17.6168 8.69403 16.9639 9.47754 16.9639C10.261 16.9639 11.0119 17.6821 11.0119 18.4983C11.0119 19.2818 10.359 19.9674 9.60812 20C8.66138 20 8.0411 19.4124 8.0411 18.4656Z" fill="#24C2FF"/>
<path d="M10.359 8.93293C10.2284 8.99823 10.1631 8.90029 10.1305 8.80235C8.92255 6.54976 9.28166 3.70954 11.4037 2.01194C11.9586 1.55489 13.0033 1.45695 13.4604 1.914C13.6563 2.07723 13.6889 2.27311 13.7215 2.50163C13.7868 2.99132 13.8848 3.48102 14.2112 3.87277C14.5703 4.29717 15.0274 4.4604 15.5497 4.42776C16.0068 4.42776 16.4638 4.36246 16.7576 4.8848C16.9209 5.17862 16.8556 6.32124 16.5944 6.54976C16.4638 6.6477 16.3659 6.58241 16.268 6.54976C15.5171 6.25594 14.7336 6.25594 13.9501 6.38653C13.6889 6.41918 13.5583 6.35388 13.5583 6.06007C13.5257 5.57037 13.4277 5.11333 13.1666 4.68893C12.6769 3.80748 11.7628 3.77483 11.1751 4.59099C10.6854 5.24391 10.5549 6.02742 10.4243 6.81093C10.2937 7.4965 10.3263 8.21472 10.359 8.93293Z" fill="#FFCB12"/>
<path d="M11.1751 9.42263C11.1098 9.32469 11.1425 9.22675 11.2404 9.16146C13.1013 7.46386 15.8762 7.13739 18.0308 8.80235C18.5858 9.2594 18.9449 10.2061 18.6511 10.7611C18.5205 10.9896 18.3573 11.0876 18.1614 11.1529C17.7044 11.3488 17.28 11.5446 16.9862 11.969C16.6923 12.3934 16.6271 12.8831 16.7576 13.4055C16.8556 13.8299 17.0188 14.2869 16.5944 14.6787C16.3659 14.9072 15.2559 15.1031 14.9621 14.9072C14.8315 14.8093 14.8642 14.7113 14.8968 14.5807C14.9947 13.7646 14.7989 13.0137 14.5051 12.2955C14.4071 12.0343 14.4398 11.9037 14.7009 11.8384C15.158 11.7079 15.5824 11.4793 15.9088 11.1529C16.6271 10.4673 16.4638 9.58586 15.5171 9.1941C14.7662 8.86764 13.9827 8.93293 13.2319 8.99823C12.5136 9.03087 11.8281 9.22675 11.1751 9.42263Z" fill="#86DA2F"/>
<path d="M10.7507 10.2714C10.8487 10.1735 10.914 10.2061 11.0119 10.2714C13.1666 11.5773 14.2765 14.1563 13.2971 16.6701C13.036 17.323 12.1872 17.9759 11.5669 17.8127C11.3057 17.7474 11.1751 17.6168 11.0446 17.4536C10.7507 17.0618 10.4243 16.7027 9.93458 16.5395C9.41225 16.3763 8.9552 16.4742 8.49815 16.7354C8.1064 16.9639 7.71464 17.2577 7.22495 16.9639C6.93113 16.8007 6.44144 15.7886 6.53938 15.4622C6.60467 15.3316 6.73525 15.3316 6.86584 15.3316C7.682 15.201 8.33492 14.8093 8.9552 14.2869C9.15108 14.1237 9.31431 14.1237 9.47754 14.3522C9.73871 14.744 10.0652 15.0704 10.4896 15.2989C11.3384 15.7886 12.1545 15.3642 12.2525 14.3849C12.3504 13.5687 12.0566 12.8505 11.7954 12.1323C11.5016 11.4793 11.1425 10.8591 10.7507 10.2714Z" fill="#24C2FF"/>
<path d="M9.70606 10.4673C9.57548 11.1202 9.28166 11.7405 8.8899 12.2955C7.71464 14.0584 6.01704 14.7766 3.92768 14.5807C3.17682 14.5154 2.55654 13.8952 2.49125 13.2749C2.4586 13.0137 2.52389 12.8178 2.68712 12.622C2.91565 12.3281 3.11153 12.067 3.20946 11.7079C3.40534 10.9896 3.14417 10.402 2.62183 9.87967C1.90362 9.16146 2.00155 8.50853 2.85036 7.98619C2.94829 7.9209 3.07888 7.85561 3.20946 7.79032C3.40534 7.69238 3.56857 7.69238 3.63386 7.9209C3.92768 8.67176 4.51531 9.22675 5.16824 9.6838C5.39676 9.87967 5.39676 10.0103 5.20088 10.2388C4.80913 10.6632 4.5806 11.1855 4.54796 11.7732C4.48267 12.4914 4.90707 12.9484 5.62528 12.9484C6.08233 12.9484 6.50673 12.7852 6.89849 12.5893C7.91052 12.067 8.69403 11.3161 9.44489 10.5326C9.54283 10.5 9.57548 10.4347 9.70606 10.4673Z" fill="#0069DA"/>
<path d="M4.35208 3.6116C4.41737 3.6116 4.5806 3.64425 4.74384 3.67689C5.95175 3.90542 6.70261 3.48102 7.09436 2.3384C7.35553 1.58754 7.91052 1.35901 8.62874 1.75077C8.66138 1.75077 8.66138 1.78341 8.69403 1.78341C9.44489 2.20781 9.44489 2.27311 8.98784 2.92603C8.59609 3.44837 8.40021 4.036 8.30227 4.65628C8.23698 5.01539 8.1064 5.08068 7.77993 4.9501C7.25759 4.75422 6.70261 4.75422 6.14762 4.9501C5.52734 5.14597 5.26617 5.70096 5.46205 6.32124C5.72322 7.13739 6.44144 7.4965 7.06172 7.9209C7.682 8.3453 8.40021 8.57383 9.08578 8.86764C9.18372 8.90029 9.34695 8.90029 9.31431 9.06352C9.28166 9.16146 9.15107 9.16146 9.02049 9.16146C7.55141 9.22675 6.14762 8.99823 5.00501 8.01884C3.92768 7.13739 3.14417 6.06007 3.27476 4.55834C3.37269 4.06865 3.7318 3.70954 4.35208 3.6116Z" fill="#FF4649"/>
<path d="M1.67509 12.7852C0.891582 12.8831 0.108073 12.2302 0.0427808 11.414C-0.0225116 10.6305 0.630413 9.84703 1.38128 9.78174C2.23008 9.6838 3.01359 10.2714 3.07888 11.0549C3.11152 11.8058 2.62183 12.7199 1.67509 12.7852Z" fill="#0069DA"/>
<path d="M15.3865 1.16314C16.2027 1.09784 16.9862 1.75077 17.0515 2.56692C17.1168 3.35043 16.4638 4.10129 15.6803 4.16659C14.8315 4.23188 14.0807 3.6116 14.0154 2.79545C13.9501 1.97929 14.5377 1.22843 15.3865 1.16314Z" fill="#FFCB12"/>
<path d="M6.86584 1.78341C6.96378 2.63221 6.37615 3.35043 5.4947 3.48102C4.74384 3.57896 3.96033 2.95868 3.86239 2.24046C3.76445 1.29372 4.28679 0.60815 5.16824 0.510211C5.98439 0.412272 6.7679 1.03255 6.86584 1.78341Z" fill="#FF4649"/>
</svg>

<svg xmlns="http://www.w3.org/2000/svg" width="20" height="20" fill="none" viewBox="0 0 20 20">
    <path fill="#86da2f" d="M18.357 11.512c.85-.065 1.535.49 1.6 1.338.065.882-.555 1.6-1.404 1.665a1.495 1.495 0 0 1-1.6-1.37c-.065-.882.523-1.535 1.404-1.633"/>
    <path fill="#24c2ff" d="M8.041 18.466c0-.85.653-1.502 1.437-1.502.783 0 1.534.718 1.534 1.534 0 .784-.653 1.47-1.404 1.502-.947 0-1.567-.588-1.567-1.534"/>
    <path fill="#ffcb12" d="M10.359 8.933c-.13.065-.196-.033-.229-.13-1.207-2.253-.848-5.093 1.274-6.791.555-.457 1.6-.555 2.056-.098.196.163.229.36.261.588.066.49.164.979.49 1.37.36.425.816.588 1.339.556.457 0 .914-.066 1.208.457.163.294.098 1.436-.164 1.665-.13.098-.228.032-.326 0-.75-.294-1.534-.294-2.318-.163-.261.032-.392-.033-.392-.327-.032-.49-.13-.947-.391-1.371-.49-.882-1.404-.914-1.992-.098-.49.653-.62 1.436-.75 2.22-.131.686-.099 1.404-.066 2.122"/>
    <path fill="#86da2f" d="M11.175 9.423c-.065-.098-.033-.196.065-.262 1.861-1.697 4.636-2.024 6.79-.359.556.457.915 1.404.621 1.96a.8.8 0 0 1-.49.39c-.457.197-.881.393-1.175.817s-.359.914-.228 1.437c.098.424.26.88-.164 1.273-.228.228-1.338.424-1.632.228-.13-.098-.098-.196-.065-.326.098-.816-.098-1.567-.392-2.285-.098-.262-.065-.392.196-.458.457-.13.881-.359 1.208-.685.718-.686.555-1.567-.392-1.959-.75-.326-1.534-.261-2.285-.196-.718.033-1.404.229-2.057.425"/>
    <path fill="#24c2ff" d="M10.75 10.271c.099-.098.164-.065.262 0 2.155 1.306 3.265 3.885 2.285 6.4-.261.652-1.11 1.305-1.73 1.142-.261-.066-.392-.196-.522-.36-.294-.391-.62-.75-1.11-.913-.523-.164-.98-.066-1.437.195-.392.229-.783.523-1.273.229-.294-.163-.784-1.175-.686-1.502.066-.13.196-.13.327-.13.816-.131 1.469-.523 2.09-1.045.195-.163.358-.163.522.065.26.392.587.718 1.012.947.848.49 1.665.065 1.762-.914.098-.816-.195-1.534-.457-2.253a13 13 0 0 0-1.044-1.86"/>
    <path fill="#0069da" d="M9.706 10.467c-.13.653-.424 1.274-.816 1.829-1.175 1.762-2.873 2.48-4.962 2.285-.751-.066-1.371-.686-1.437-1.306a.79.79 0 0 1 .196-.653c.229-.294.425-.555.522-.914.196-.718-.065-1.306-.587-1.828-.718-.719-.62-1.371.228-1.894.098-.065.229-.13.36-.196.195-.098.359-.098.424.13.294.752.881 1.307 1.534 1.764.229.196.229.326.033.555-.392.424-.62.946-.653 1.534-.065.718.36 1.175 1.077 1.175.457 0 .882-.163 1.273-.359 1.013-.522 1.796-1.273 2.547-2.056.098-.033.13-.098.261-.066"/>
    <path fill="#ff4649" d="M4.352 3.612c.065 0 .229.032.392.065 1.208.228 1.959-.196 2.35-1.339.262-.75.817-.979 1.535-.587.032 0 .032.032.065.032.75.425.75.49.294 1.143-.392.522-.588 1.11-.686 1.73-.065.36-.196.425-.522.294a2.34 2.34 0 0 0-1.632 0c-.62.196-.882.751-.686 1.371.261.816.98 1.176 1.6 1.6s1.338.653 2.024.947c.098.032.26.032.228.196-.032.097-.163.097-.294.097-1.469.066-2.872-.163-4.015-1.142-1.077-.882-1.86-1.959-1.73-3.46.098-.49.457-.85 1.077-.947"/>
    <path fill="#0069da" d="M1.675 12.785c-.783.098-1.567-.555-1.632-1.371-.066-.784.587-1.567 1.338-1.632.85-.098 1.633.49 1.698 1.273.033.75-.457 1.665-1.404 1.73"/>
    <path fill="#ffcb12" d="M15.387 1.163c.816-.065 1.6.588 1.665 1.404.065.783-.588 1.534-1.372 1.6-.848.065-1.6-.555-1.665-1.372-.065-.816.523-1.567 1.371-1.632"/>
    <path fill="#ff4649" d="M6.866 1.783c.098.85-.49 1.567-1.371 1.698-.751.098-1.535-.522-1.633-1.24-.098-.947.425-1.633 1.306-1.73.816-.099 1.6.522 1.698 1.272"/>
</svg>
